!!!SOCIAL_FUNCTION:	songs of social dance
!!!PDT:	1939
!!!OTL: No_73_Song_of_Pintlachatl_Dance_(c).krn
!!!LANG: Non-Tone
!!!LING_GROUP: Wakashan
!!!REG: Pacific Northwest
**kern	**kern
*staff2	*staff1
=1-	=1-
*clefF4	*clefF4
*k[f#c#g#d#]	*k[f#c#g#d#]
*M3/4	*M3/4
2.r	2r
.	8r
.	8F#\
=2	=2
2.r	[2G#\
.	8.G#\L]
.	16F#\Jk
=3||	=3||
*M2/4	*M2/4
2r	4.G#\
.	8G#\
=4||	=4||
*M3/4	*M3/4
2.r	(8.F#\L
.	16E\Jk)
.	4E\
.	8.E\L
.	16F#\Jk
=5||	=5||
*M2/4	*M2/4
2r	2F#\
=6	=6
2r	4.G#\
.	8G#\
=7||	=7||
*M3/4	*M3/4
2.r	(8.F#\L
.	16E\Jk)
.	4E\
.	8r
.	16r
.	16F#\
=8||	=8||
*M2/4	*M2/4
2r	2F#\
=9	=9
2r	4.G#\
.	8G#\
=10||	=10||
*M5/8	*M5/8
3...r	8F#\L
.	8E\
.	8E\
.	8C#\J
.	8r
=11||	=11||
*M2/4	*M2/4
2r	4.E\
.	8E\
=12	=12
2r	4.F#;\
.	8E\
=13	=13
2r	4E\
.	4C#/
=14	=14
2r	4BB/
.	4r
=15||	=15||
*M5/8	*M5/8
8GG#/	8BB/
8r	8r
8GG#/L	8BB/L
8GG#/	8BB/J
8GG#/J	16r
.	16E\
=16||	=16||
*M2/4	*M2/4
8GG#/L	2E\
8GG#/J	.
8GG#/L	.
8GG#/J	.
=17	=17
8GG#/L	4.F#\
8GG#/J	.
8GG#/L	.
8GG#/J	8F#\
=18	=18
8GG#/L	8E/L
8GG#/J	8C#/J
8GG#/L	8C#/
8GG#/J	16r
.	16E\
=19	=19
8GG#/L	2E\
8GG#/J	.
8GG#/L	.
8GG#/J	.
=20	=20
8GG#/L	4.F#\
8GG#/J	.
8GG#/L	.
8GG#/J	8F#\
=21	=21
8GG#/L	(8E/L
8GG#/J	8C#/J)
8GG#/L	8C#/
8GG#/J	8r
=22	=22
8GG#/L	4.E\
8GG#/J	.
8GG#/L	.
8GG#/J	8C#/
=23	=23
8GG#/L	4.E;\
8GG#/J	.
8GG#/L	.
8GG#/J	8C#/
=24	=24
8GG#/L	4E\
8GG#/J	.
8GG#/L	4C#/
8GG#/J	.
=25	=25
8GG#/L	4.BB/
8GG#/J	.
8GG#/L	.
8GG#/J	8r
=26	=26
8GG#/L	4BB/
8GG#/J	.
8GG#/L	8BB/L
8GG#/J	8BB/J
=27	=27
8GG#/L	4r
8GG#/J	.
8GG#/L	4G#\
8GG#/J	.
=28	=28
8GG#/L	(2G#\
8GG#/J	.
8GG#/L	.
8GG#/J	.
=29	=29
8GG#/L	4BB/)
8GG#/J	.
8GG#/L	4r
8GG#/J	.
=30	=30
4GG#^/	2r
4r	.
==	==
*-	*-
